pix_core/f/gif.svg

<svg fill="none" preserveAspectRatio="xMinYMid meet" viewBox="0 0 24 24" xmlns="http://www.w3.org/2000/svg"><g fill="#fff"><path clip-rule="evenodd" d="m4.5 5c0-1.38071 1.11929-2.5 2.5-2.5h6.1716c.663 0 1.2989.26339 1.7677.73223l3.8285 3.82843c.4688.46884.7322 1.10473.7322 1.76777v10.17157c0 1.3807-1.1193 2.5-2.5 2.5h-10c-1.38071 0-2.5-1.1193-2.5-2.5 0-.2761.22386-.5.5-.5s.5.2239.5.5c0 .8284.67157 1.5 1.5 1.5h10c.8284 0 1.5-.6716 1.5-1.5v-10c0-.27614-.2239-.5-.5-.5h-3c-.8284 0-1.5-.67157-1.5-1.5v-3c0-.27614-.2239-.5-.5-.5h-6c-.82843 0-1.5.67157-1.5 1.5v6c0 .2761-.22386.5-.5.5s-.5-.2239-.5-.5zm10 2v-2.79289l3.2929 3.29289h-2.7929c-.2761 0-.5-.22386-.5-.5z" fill-rule="evenodd"/><path clip-rule="evenodd" d="m4.29714 12.7182c.23248-.0975.48902-.1454.76819-.1454.38093 0 .70244.062.95908.1923.25383.127.45035.3057.58586.5362.13513.2247.21721.481.24785.7671.00303.0282-.00608.0563-.02505.0774-.01896.0211-.046.0332-.07438.0332h-.85254c-.04955 0-.09163-.0363-.09891-.0853-.02001-.1346-.0577-.2485-.11125-.3435-.05081-.0902-.12352-.1609-.22076-.2129-.09196-.05-.21907-.079-.38646-.079-.13234 0-.24689.0272-.34607.0793-.09714.0503-.1812.1257-.25085.2284-.06992.1031-.12538.2339-.16427.3951-.03872.1604-.05873.3495-.05873.5683v.2725c0 .2164.0209.4052.06144.5674.04044.1599.09914.2911.17417.396.0764.1022.16893.178.27812.2292.1093.0512.23981.0784.39408.0784.1338 0 .24004-.0113.32096-.032.08816-.022.15381-.0475.19933-.0741.03574-.0215.064-.041.08576-.0584v-.611h-.70273c-.05523 0-.1-.0448-.1-.1v-.627c0-.0552.04477-.1.1-.1h1.68164c.05523 0 .1.0448.1.1v1.6904c0 .0234-.00814.0459-.02302.0639-.075.0904-.18622.1835-.32859.2797-.14913.0987-.33828.1819-.56309.2502-.23086.0701-.50588.1039-.82299.1039-.28639 0-.55008-.0468-.7898-.1418-.23982-.0972-.44801-.2395-.62218-.4261-.17253-.1871-.30455-.4147-.39639-.6801-.09215-.2682-.13734-.5717-.13734-.9086v-.2666c0-.3365.04305-.6394.13097-.9072.08968-.267.21834-.4959.38689-.6832.1681-.1868.36876-.3292.60106-.4267zm2.46155 1.36c-.00361-.0335-.00795-.0666-.01302-.0992h.01302zm-.10059.0009h.09968l-.09852.0106z" fill-rule="evenodd"/><path d="m8.0292 12.7343c0-.0553.04477-.1.1-.1h.87598c.05522 0 .1.0447.1.1v4.2656c0 .0552-.04478.1-.1.1h-.87598c-.05523 0-.1-.0448-.1-.1z"/><path d="m10.3284 12.7343c0-.0553.0448-.1.1-.1h2.7832c.0552 0 .1.0447.1.1v.6885c0 .0552-.0448.1-.1.1h-1.8043v.9337h1.5992c.0553 0 .1.0448.1.1v.6856c0 .0552-.0447.1-.1.1h-1.5992v1.6578c0 .0552-.0447.1-.1.1h-.8789c-.0552 0-.1-.0448-.1-.1z"/></g></svg>

<svg viewBox="0 0 24 24" fill="none" xmlns="http://www.w3.org/2000/svg" preserveAspectRatio="xMinYMid meet">
<path fill-rule="evenodd" clip-rule="evenodd" d="M4.5 5C4.5 3.61929 5.61929 2.5 7 2.5H13.1716C13.8346 2.5 14.4705 2.76339 14.9393 3.23223L18.7678 7.06066C19.2366 7.5295 19.5 8.16539 19.5 8.82843V19C19.5 20.3807 18.3807 21.5 17 21.5H7C5.61929 21.5 4.5 20.3807 4.5 19C4.5 18.7239 4.72386 18.5 5 18.5C5.27614 18.5 5.5 18.7239 5.5 19C5.5 19.8284 6.17157 20.5 7 20.5H17C17.8284 20.5 18.5 19.8284 18.5 19V9C18.5 8.72386 18.2761 8.5 18 8.5H15C14.1716 8.5 13.5 7.82843 13.5 7V4C13.5 3.72386 13.2761 3.5 13 3.5H7C6.17157 3.5 5.5 4.17157 5.5 5V11C5.5 11.2761 5.27614 11.5 5 11.5C4.72386 11.5 4.5 11.2761 4.5 11V5ZM14.5 7V4.20711L17.7929 7.5H15C14.7239 7.5 14.5 7.27614 14.5 7Z" fill="#fff"/>
<path fill-rule="evenodd" clip-rule="evenodd" d="M4.29714 12.7182C4.52962 12.6207 4.78616 12.5728 5.06533 12.5728C5.44626 12.5728 5.76777 12.6348 6.02441 12.7651C6.27824 12.8921 6.47476 13.0708 6.61027 13.3013C6.7454 13.526 6.82748 13.7823 6.85812 14.0684C6.86115 14.0966 6.85204 14.1247 6.83307 14.1458C6.81411 14.1669 6.78707 14.179 6.75869 14.179H5.90615C5.8566 14.179 5.81452 14.1427 5.80724 14.0937C5.78723 13.9591 5.74954 13.8452 5.69599 13.7502C5.64518 13.66 5.57247 13.5893 5.47523 13.5373C5.38327 13.4873 5.25616 13.4583 5.08877 13.4583C4.95643 13.4583 4.84188 13.4855 4.7427 13.5376C4.64556 13.5879 4.5615 13.6633 4.49185 13.766C4.42193 13.8691 4.36647 13.9999 4.32758 14.1611C4.28886 14.3215 4.26885 14.5106 4.26885 14.7294V15.0019C4.26885 15.2183 4.28975 15.4071 4.33029 15.5693C4.37073 15.7292 4.42943 15.8604 4.50446 15.9653C4.58086 16.0675 4.67339 16.1433 4.78258 16.1945C4.89188 16.2457 5.02239 16.2729 5.17666 16.2729C5.31046 16.2729 5.4167 16.2616 5.49762 16.2409C5.58578 16.2189 5.65143 16.1934 5.69695 16.1668C5.73269 16.1453 5.76095 16.1258 5.78271 16.1084V15.4974H5.07998C5.02475 15.4974 4.97998 15.4526 4.97998 15.3974V14.7704C4.97998 14.7152 5.02475 14.6704 5.07998 14.6704H6.76162C6.81685 14.6704 6.86162 14.7152 6.86162 14.7704V16.4608C6.86162 16.4842 6.85348 16.5067 6.8386 16.5247C6.7636 16.6151 6.65238 16.7082 6.51001 16.8044C6.36088 16.9031 6.17173 16.9863 5.94692 17.0546C5.71606 17.1247 5.44104 17.1585 5.12393 17.1585C4.83754 17.1585 4.57385 17.1117 4.33413 17.0167C4.09431 16.9195 3.88612 16.7772 3.71195 16.5906C3.53942 16.4035 3.4074 16.1759 3.31556 15.9105C3.22341 15.6423 3.17822 15.3388 3.17822 15.0019V14.7353C3.17822 14.3988 3.22127 14.0959 3.30919 13.8281C3.39887 13.5611 3.52753 13.3322 3.69608 13.1449C3.86418 12.9581 4.06484 12.8157 4.29714 12.7182ZM6.75869 14.0782C6.75508 14.0447 6.75074 14.0116 6.74567 13.979H6.75869V14.0782ZM6.6581 14.0791H6.75778L6.65926 14.0897L6.6581 14.0791Z" fill="#fff"/>
<path fill="#fff" d="M8.0292 12.7343C8.0292 12.679 8.07397 12.6343 8.1292 12.6343H9.00518C9.0604 12.6343 9.10518 12.679 9.10518 12.7343V16.9999C9.10518 17.0551 9.0604 17.0999 9.00518 17.0999H8.1292C8.07397 17.0999 8.0292 17.0551 8.0292 16.9999V12.7343Z" fill="#fff"/>
<path fill="#fff" d="M10.3284 12.7343C10.3284 12.679 10.3732 12.6343 10.4284 12.6343H13.2116C13.2668 12.6343 13.3116 12.679 13.3116 12.7343V13.4228C13.3116 13.478 13.2668 13.5228 13.2116 13.5228H11.4073V14.4565H13.0065C13.0618 14.4565 13.1065 14.5013 13.1065 14.5565V15.2421C13.1065 15.2973 13.0618 15.3421 13.0065 15.3421H11.4073V16.9999C11.4073 17.0551 11.3626 17.0999 11.3073 17.0999H10.4284C10.3732 17.0999 10.3284 17.0551 10.3284 16.9999V12.7343Z" fill="#fff"/>
</svg>
